src/pos-icons/ear-hearing-off.svg

<svg height="24" viewBox="0 0 24 24" width="24" xmlns="http://www.w3.org/2000/svg"><path d="m1 4.27 1.28-1.27 17.72 17.72-1.27 1.28-5.82-5.82c-.72.56-1.24 1.01-1.54 1.92-.6 1.82-1.37 2.84-2.73 3.55-.51.23-1.07.35-1.64.35a4 4 0 0 1 -4-4h2a2 2 0 0 0 2 2c.29 0 .56-.06.76-.15.71-.35 1.21-.88 1.71-2.38.44-1.35 1.22-2.08 2.03-2.71l-6.46-6.45c-.04.23-.04.46-.04.69h-2c0-.83.14-1.61.39-2.34zm13.18 7.67c.53-.94.82-2.01.82-2.94 0-2.8-2.2-5-5-5-1.19 0-2.26.39-3.11 1.06l-1.43-1.43c1.21-1.02 2.79-1.63 4.54-1.63 3.93 0 7 3.07 7 7 0 1.26-.38 2.65-1.07 3.9l-.46.75-1.44-1.45zm2.18-9.3 1.42-1.42c1.99 1.99 3.22 4.74 3.22 7.78 0 2.83-1.07 5.41-2.82 7.36l-1.41-1.42c1.38-1.58 2.23-3.66 2.23-5.94 0-2.5-1-4.74-2.64-6.36m-3.86 6.36c0 .5-.14.93-.37 1.31l-3.44-3.44c.38-.23.81-.37 1.31-.37a2.5 2.5 0 0 1 2.5 2.5z"/></svg>

<?xml version="1.0" encoding="UTF-8"?><!DOCTYPE svg PUBLIC "-//W3C//DTD SVG 1.1//EN" "http://www.w3.org/Graphics/SVG/1.1/DTD/svg11.dtd"><svg xmlns="http://www.w3.org/2000/svg" xmlns:xlink="http://www.w3.org/1999/xlink" version="1.1" id="mdi-ear-hearing-off" width="24" height="24" viewBox="0 0 24 24"><path d="M1,4.27L2.28,3L20,20.72L18.73,22L12.91,16.18C12.19,16.74 11.67,17.19 11.37,18.1C10.77,19.92 10,20.94 8.64,21.65C8.13,21.88 7.57,22 7,22A4,4 0 0,1 3,18H5A2,2 0 0,0 7,20C7.29,20 7.56,19.94 7.76,19.85C8.47,19.5 8.97,18.97 9.47,17.47C9.91,16.12 10.69,15.39 11.5,14.76L5.04,8.31C5,8.54 5,8.77 5,9H3C3,8.17 3.14,7.39 3.39,6.66L1,4.27M14.18,11.94C14.71,11 15,9.93 15,9C15,6.2 12.8,4 10,4C8.81,4 7.74,4.39 6.89,5.06L5.46,3.63C6.67,2.61 8.25,2 10,2C13.93,2 17,5.07 17,9C17,10.26 16.62,11.65 15.93,12.9L15.47,13.65L14.03,12.2L14.18,11.94M16.36,2.64L17.78,1.22C19.77,3.21 21,5.96 21,9C21,11.83 19.93,14.41 18.18,16.36L16.77,14.94C18.15,13.36 19,11.28 19,9C19,6.5 18,4.26 16.36,2.64M12.5,9C12.5,9.5 12.36,9.93 12.13,10.31L8.69,6.87C9.07,6.64 9.5,6.5 10,6.5A2.5,2.5 0 0,1 12.5,9Z" /></svg>
